X: 1
T:Old Maids of Galway , The (O'Neill)
T:Johnny When you Die (Kerry)
M:4/4
L:1/8
S:Ir-Trad; 3/98
H:from Paul O'Shaugnessy
K:D
dc|BFFF BFAF|~E2DE FAdc|BFFF BFAF|~E2DE FDdc|\
BFFF BFAF|~E2DE FAA2|BABc dBAF|E2DE FDD2||\
dfed B2AB|dfed Be~e2|d2fd BdAF|E2DE FDD2|\
dfed B2AB|dfed e3g|faed dBAF|E2DE FDD2||
